X:3191
T:Just As I Was In The Morning. HSJJ.157
T:She Wants A Fellow. HSJJ.157
O:england
M:6/8
L:1/8
S:HSJ Jackson,Wyresdale,Lancs.1823
R:Jig
A:Lancashire
H:1823
K:D
f/e/|d2D FED|EFE cBc|d2D F/G/AF|A3d2:|
|:A|dfa afd|cea ecA|ded fed|f3a2b|afa geg|fdf cAc|d2D FAF|A3d2:|]
